docs/media/cursor/cur14.svg

<?xml version="1.0" encoding="UTF-8"?>
<!DOCTYPE svg  PUBLIC '-//W3C//DTD SVG 1.1//EN'  'http://www.w3.org/Graphics/SVG/1.1/DTD/svg11.dtd'>
<svg version="1.1" viewBox="0 0 640 640" xmlns="http://www.w3.org/2000/svg" xmlns:xlink="http://www.w3.org/1999/xlink">
<defs>
<path id="a" d="m419.93 322.87c0 69.97-57.13 126.78-127.5 126.78s-127.5-56.81-127.5-126.78 57.13-126.78 127.5-126.78 127.5 56.81 127.5 126.78z"/>
<path id="c" d="m481.92 323.32c0.83 106-83.4 192.73-187.99 193.55-104.58 0.82-190.17-84.58-191-190.59s83.41-192.73 187.99-193.55c104.59-0.82 190.17 84.58 191 190.59z"/>
<path id="b" d="m450.22 322.87c0 87.93-71.47 159.32-159.5 159.32s-159.5-71.39-159.5-159.32c0-87.94 71.47-159.33 159.5-159.33s159.5 71.39 159.5 159.33z"/>
<path id="d" d="m424.42 321.83c0.58 73.84-58.09 134.25-130.94 134.82s-132.47-58.92-133.05-132.75c-0.58-73.84 58.1-134.24 130.95-134.81s132.46 58.91 133.04 132.74z"/>
</defs>
<use fill="#e1e213" xlink:href="#a"/>
<use fill-opacity="0" stroke="#e2d512" stroke-opacity=".44" stroke-width="9" xlink:href="#a"/>
<use fill-opacity="0" stroke="#f1f0e3" stroke-width="2" xlink:href="#c"/>
<use fill-opacity="0" stroke="#f1f0e3" stroke-width="5" xlink:href="#b"/>
<use fill-opacity="0" stroke="#f1f0e3" xlink:href="#d"/>
</svg>

<?xml version="1.0" encoding="UTF-8" standalone="no"?>
<!DOCTYPE svg PUBLIC "-//W3C//DTD SVG 1.1//EN" "http://www.w3.org/Graphics/SVG/1.1/DTD/svg11.dtd">
<svg version="1.1" xmlns="http://www.w3.org/2000/svg" xmlns:xlink="http://www.w3.org/1999/xlink" preserveAspectRatio="xMidYMid meet" viewBox="0 0 640 640" width="640" height="640"><defs><path d="M419.93 322.87C419.93 392.84 362.8 449.65 292.43 449.65C222.06 449.65 164.93 392.84 164.93 322.87C164.93 252.9 222.06 196.09 292.43 196.09C362.8 196.09 419.93 252.9 419.93 322.87Z" id="dEREoXHzj"></path><path d="M481.92 323.32C482.75 429.32 398.52 516.05 293.93 516.87C189.35 517.69 103.76 432.29 102.93 326.28C102.1 220.27 186.34 133.55 290.92 132.73C395.51 131.91 481.09 217.31 481.92 323.32Z" id="cKY0I1OHT"></path><path d="M450.22 322.87C450.22 410.8 378.75 482.19 290.72 482.19C202.69 482.19 131.22 410.8 131.22 322.87C131.22 234.93 202.69 163.54 290.72 163.54C378.75 163.54 450.22 234.93 450.22 322.87Z" id="e3HNDimuX2"></path><path d="M424.42 321.83C425 395.67 366.33 456.08 293.48 456.65C220.63 457.22 161.01 397.73 160.43 323.9C159.85 250.06 218.53 189.66 291.38 189.09C364.23 188.52 423.84 248 424.42 321.83Z" id="aRMjKaqJ9"></path></defs><g><g><g><use xlink:href="#dEREoXHzj" opacity="1" fill="#e1e213" fill-opacity="1"></use><g><use xlink:href="#dEREoXHzj" opacity="1" fill-opacity="0" stroke="#e2d512" stroke-width="9" stroke-opacity="0.44"></use></g></g><g><g><use xlink:href="#cKY0I1OHT" opacity="1" fill-opacity="0" stroke="#f1f0e3" stroke-width="2" stroke-opacity="1"></use></g></g><g><g><use xlink:href="#e3HNDimuX2" opacity="1" fill-opacity="0" stroke="#f1f0e3" stroke-width="5" stroke-opacity="1"></use></g></g><g><g><use xlink:href="#aRMjKaqJ9" opacity="1" fill-opacity="0" stroke="#f1f0e3" stroke-width="1" stroke-opacity="1"></use></g></g></g></g></svg>
